Numix/24x24/status/screencloud-idle.svg

<?xml version="1.0" encoding="UTF-8" standalone="no"?>
<svg
   xmlns:dc="http://purl.org/dc/elements/1.1/"
   xmlns:cc="http://creativecommons.org/ns#"
   xmlns:rdf="http://www.w3.org/1999/02/22-rdf-syntax-ns#"
   xmlns:svg="http://www.w3.org/2000/svg"
   xmlns="http://www.w3.org/2000/svg"
   xmlns:sodipodi="http://sodipodi.sourceforge.net/DTD/sodipodi-0.dtd"
   xmlns:inkscape="http://www.inkscape.org/namespaces/inkscape"
   width="24"
   height="24"
   viewBox="0 0 24 24"
   id="svg2"
   version="1.1"
   inkscape:version="0.48.5 r10040"
   sodipodi:docname="screencloud-idle.svg">
  <metadata
     id="metadata40">
    <rdf:RDF>
      <cc:Work
         rdf:about="">
        <dc:format>image/svg+xml</dc:format>
        <dc:type
           rdf:resource="http://purl.org/dc/dcmitype/StillImage" />
      </cc:Work>
    </rdf:RDF>
  </metadata>
  <sodipodi:namedview
     pagecolor="#ffffff"
     bordercolor="#666666"
     borderopacity="1"
     objecttolerance="10"
     gridtolerance="10"
     guidetolerance="10"
     inkscape:pageopacity="0"
     inkscape:pageshadow="2"
     inkscape:window-width="640"
     inkscape:window-height="480"
     id="namedview38"
     showgrid="false"
     inkscape:zoom="9.8333333"
     inkscape:cx="12"
     inkscape:cy="12"
     inkscape:window-x="0"
     inkscape:window-y="0"
     inkscape:window-maximized="0"
     inkscape:current-layer="svg2" />
  <defs
     id="defs4">
    <filter
       id="0"
       filterUnits="objectBoundingBox"
       x="0"
       y="0"
       width="24"
       height="24">
      <feColorMatrix
         type="matrix"
         in="SourceGraphic"
         values="0 0 0 0 1 0 0 0 0 1 0 0 0 0 1 0 0 0 1 0"
         id="feColorMatrix7" />
    </filter>
    <mask
       id="1">
      <g
         filter="url(#0)"
         id="g10">
        <rect
           width="24"
           height="24"
           fill-opacity="0.302"
           id="rect12" />
      </g>
    </mask>
    <clipPath
       id="2">
      <rect
         width="24"
         height="24"
         id="rect15" />
    </clipPath>
    <g
       id="3"
       clip-path="url(#2)">
      <path
         d="M 8.828125 9.371094 C 5.601562 9.371094 2.984375 11.988281 2.984375 15.214844 C 2.984375 15.347656 2.988281 15.480469 2.996094 15.609375 C 1.863281 16.160156 1.089844 17.257812 1.089844 18.527344 C 1.089844 20.351562 2.671875 21.816406 4.640625 21.816406 L 19.359375 21.816406 C 21.324219 21.816406 22.90625 20.351562 22.90625 18.527344 C 22.90625 17.175781 22.035156 16.015625 20.777344 15.511719 C 20.808594 15.308594 20.824219 15.097656 20.824219 14.882812 C 20.824219 12.570312 18.949219 10.695312 16.636719 10.695312 C 15.476562 10.695312 14.421875 11.167969 13.664062 11.933594 C 12.613281 10.386719 10.839844 9.371094 8.828125 9.371094 Z M 6.410156 11.152344 C 7.042969 11.152344 7.554688 11.640625 7.554688 12.242188 C 7.554688 12.84375 7.042969 13.335938 6.410156 13.335938 C 5.777344 13.335938 5.265625 12.84375 5.265625 12.242188 C 5.265625 11.640625 5.777344 11.152344 6.410156 11.152344 Z M 12 12.773438 C 14.070312 12.773438 15.761719 14.46875 15.761719 16.539062 C 15.761719 18.613281 14.070312 20.308594 12 20.308594 C 9.929688 20.308594 8.234375 18.613281 8.234375 16.539062 C 8.234375 14.46875 9.929688 12.773438 12 12.773438 Z M 12 14.390625 C 10.804688 14.390625 9.855469 15.34375 9.855469 16.539062 C 9.855469 17.738281 10.804688 18.691406 12 18.691406 C 13.191406 18.691406 14.144531 17.738281 14.144531 16.539062 C 14.144531 15.34375 13.191406 14.390625 12 14.390625 Z "
         id="path18" />
      <path
         d="M 18.964844 10.617188 L 18.527344 10.203125 L 17.9375 10.332031 L 18.199219 9.785156 L 17.894531 9.261719 L 18.492188 9.339844 L 18.898438 8.890625 L 19.007812 9.484375 L 19.558594 9.730469 L 19.027344 10.019531 Z "
         id="path20" />
      <path
         d="M 19.453125 9.515625 L 19.472656 9.234375 L 19.253906 9.054688 L 19.53125 8.992188 L 19.632812 8.726562 L 19.78125 8.96875 L 20.0625 8.984375 L 19.878906 9.199219 L 19.949219 9.472656 L 19.6875 9.363281 Z "
         id="path22" />
      <path
         d="M 19.714844 11.15625 L 19.660156 10.726562 L 19.277344 10.527344 L 19.667969 10.347656 L 19.738281 9.921875 L 20.035156 10.234375 L 20.460938 10.171875 L 20.253906 10.550781 L 20.445312 10.933594 L 20.023438 10.851562 Z "
         id="path24" />
    </g>
  </defs>
  <path
     style="fill:#ececec;fill-opacity:1"
     inkscape:connector-curvature="0"
     id="path30"
     d="m 8.828125,8.28125 c -3.226563,0 -5.84375,2.617188 -5.84375,5.84375 0,0.132812 0.00391,0.265625 0.011719,0.394531 -1.132813,0.546875 -1.90625,1.644531 -1.90625,2.917969 0,1.824219 1.582031,3.289062 3.550781,3.289062 l 14.71875,0 c 1.964844,0 3.546875,-1.464843 3.546875,-3.289062 0,-1.351562 -0.871094,-2.511719 -2.128906,-3.015625 0.03125,-0.207031 0.04687,-0.414063 0.04687,-0.628906 0,-2.3125 -1.875,-4.1875 -4.1875,-4.1875 -1.160157,0 -2.214844,0.472656 -2.972657,1.234375 C 12.613281,9.292969 10.839844,8.28125 8.828125,8.28125 z M 6.410156,10.0625 c 0.632813,0 1.144532,0.488281 1.144532,1.089844 0,0.601562 -0.511719,1.089844 -1.144532,1.089844 -0.632812,0 -1.144531,-0.488282 -1.144531,-1.089844 0,-0.601563 0.511719,-1.089844 1.144531,-1.089844 z M 12,11.679688 c 2.070312,0 3.761719,1.699218 3.761719,3.769531 0,2.070312 -1.691407,3.769531 -3.761719,3.769531 -2.070312,0 -3.765625,-1.699219 -3.765625,-3.769531 0,-2.070313 1.695313,-3.769531 3.765625,-3.769531 z m 0,1.621093 c -1.195312,0 -2.144531,0.953125 -2.144531,2.148438 0,1.199219 0.949219,2.148437 2.144531,2.148437 1.191406,0 2.144531,-0.949218 2.144531,-2.148437 0,-1.195313 -0.953125,-2.148438 -2.144531,-2.148438 z" />
  <path
     style="fill:#ececec;fill-opacity:1"
     inkscape:connector-curvature="0"
     id="path32"
     d="m 18.964844,9.527344 -0.4375,-0.414063 -0.589844,0.125 0.261719,-0.542969 -0.304688,-0.523437 0.597657,0.078125 0.40625,-0.449219 0.109374,0.59375 0.550782,0.246094 -0.53125,0.289063 z" />
  <path
     style="fill:#ececec;fill-opacity:1"
     inkscape:connector-curvature="0"
     id="path34"
     d="m 19.453125,8.425781 0.01953,-0.28125 -0.21875,-0.179687 0.277344,-0.0625 0.101562,-0.265625 0.148438,0.242187 0.28125,0.015625 -0.183594,0.214844 0.07031,0.273437 L 19.6875,8.273438 z" />
  <path
     style="fill:#ececec;fill-opacity:1"
     inkscape:connector-curvature="0"
     id="path36"
     d="M 19.714844,10.066406 19.660156,9.636719 19.277344,9.4375 l 0.390625,-0.183594 0.07031,-0.425781 0.296875,0.316406 0.425782,-0.0625 -0.207032,0.375 0.191406,0.386719 -0.421874,-0.082031 z" />
</svg>

<svg xmlns="http://www.w3.org/2000/svg" xmlns:xlink="http://www.w3.org/1999/xlink" width="24" height="24" viewBox="0 0 24 24">
 <defs>
  <filter id="0" filterUnits="objectBoundingBox" x="0" y="0" width="24" height="24">
   <feColorMatrix type="matrix" in="SourceGraphic" values="0 0 0 0 1 0 0 0 0 1 0 0 0 0 1 0 0 0 1 0"/>
  </filter>
  <mask id="1">
   <g filter="url(#0)">
    <rect width="24" height="24" fill-opacity="0.302"/>
   </g>
  </mask>
  <clipPath id="2">
   <rect width="24" height="24"/>
  </clipPath>
  <g id="3" clip-path="url(#2)">
   <path d="M 8.828125 9.371094 C 5.601562 9.371094 2.984375 11.988281 2.984375 15.214844 C 2.984375 15.347656 2.988281 15.480469 2.996094 15.609375 C 1.863281 16.160156 1.089844 17.257812 1.089844 18.527344 C 1.089844 20.351562 2.671875 21.816406 4.640625 21.816406 L 19.359375 21.816406 C 21.324219 21.816406 22.90625 20.351562 22.90625 18.527344 C 22.90625 17.175781 22.035156 16.015625 20.777344 15.511719 C 20.808594 15.308594 20.824219 15.097656 20.824219 14.882812 C 20.824219 12.570312 18.949219 10.695312 16.636719 10.695312 C 15.476562 10.695312 14.421875 11.167969 13.664062 11.933594 C 12.613281 10.386719 10.839844 9.371094 8.828125 9.371094 Z M 6.410156 11.152344 C 7.042969 11.152344 7.554688 11.640625 7.554688 12.242188 C 7.554688 12.84375 7.042969 13.335938 6.410156 13.335938 C 5.777344 13.335938 5.265625 12.84375 5.265625 12.242188 C 5.265625 11.640625 5.777344 11.152344 6.410156 11.152344 Z M 12 12.773438 C 14.070312 12.773438 15.761719 14.46875 15.761719 16.539062 C 15.761719 18.613281 14.070312 20.308594 12 20.308594 C 9.929688 20.308594 8.234375 18.613281 8.234375 16.539062 C 8.234375 14.46875 9.929688 12.773438 12 12.773438 Z M 12 14.390625 C 10.804688 14.390625 9.855469 15.34375 9.855469 16.539062 C 9.855469 17.738281 10.804688 18.691406 12 18.691406 C 13.191406 18.691406 14.144531 17.738281 14.144531 16.539062 C 14.144531 15.34375 13.191406 14.390625 12 14.390625 Z "/>
   <path d="M 18.964844 10.617188 L 18.527344 10.203125 L 17.9375 10.332031 L 18.199219 9.785156 L 17.894531 9.261719 L 18.492188 9.339844 L 18.898438 8.890625 L 19.007812 9.484375 L 19.558594 9.730469 L 19.027344 10.019531 Z "/>
   <path d="M 19.453125 9.515625 L 19.472656 9.234375 L 19.253906 9.054688 L 19.53125 8.992188 L 19.632812 8.726562 L 19.78125 8.96875 L 20.0625 8.984375 L 19.878906 9.199219 L 19.949219 9.472656 L 19.6875 9.363281 Z "/>
   <path d="M 19.714844 11.15625 L 19.660156 10.726562 L 19.277344 10.527344 L 19.667969 10.347656 L 19.738281 9.921875 L 20.035156 10.234375 L 20.460938 10.171875 L 20.253906 10.550781 L 20.445312 10.933594 L 20.023438 10.851562 Z "/>
  </g>
 </defs>
 <g>
  <use xlink:href="#3" mask="url(#1)"/>
  <path d="M 8.828125 8.28125 C 5.601562 8.28125 2.984375 10.898438 2.984375 14.125 C 2.984375 14.257812 2.988281 14.390625 2.996094 14.519531 C 1.863281 15.066406 1.089844 16.164062 1.089844 17.4375 C 1.089844 19.261719 2.671875 20.726562 4.640625 20.726562 L 19.359375 20.726562 C 21.324219 20.726562 22.90625 19.261719 22.90625 17.4375 C 22.90625 16.085938 22.035156 14.925781 20.777344 14.421875 C 20.808594 14.214844 20.824219 14.007812 20.824219 13.792969 C 20.824219 11.480469 18.949219 9.605469 16.636719 9.605469 C 15.476562 9.605469 14.421875 10.078125 13.664062 10.839844 C 12.613281 9.292969 10.839844 8.28125 8.828125 8.28125 Z M 6.410156 10.0625 C 7.042969 10.0625 7.554688 10.550781 7.554688 11.152344 C 7.554688 11.753906 7.042969 12.242188 6.410156 12.242188 C 5.777344 12.242188 5.265625 11.753906 5.265625 11.152344 C 5.265625 10.550781 5.777344 10.0625 6.410156 10.0625 Z M 12 11.679688 C 14.070312 11.679688 15.761719 13.378906 15.761719 15.449219 C 15.761719 17.519531 14.070312 19.21875 12 19.21875 C 9.929688 19.21875 8.234375 17.519531 8.234375 15.449219 C 8.234375 13.378906 9.929688 11.679688 12 11.679688 Z M 12 13.300781 C 10.804688 13.300781 9.855469 14.253906 9.855469 15.449219 C 9.855469 16.648438 10.804688 17.597656 12 17.597656 C 13.191406 17.597656 14.144531 16.648438 14.144531 15.449219 C 14.144531 14.253906 13.191406 13.300781 12 13.300781 Z " fill="#dcdcdc"/>
  <path d="M 18.964844 9.527344 L 18.527344 9.113281 L 17.9375 9.238281 L 18.199219 8.695312 L 17.894531 8.171875 L 18.492188 8.25 L 18.898438 7.800781 L 19.007812 8.394531 L 19.558594 8.640625 L 19.027344 8.929688 Z " fill="#dcdcdc"/>
  <path d="M 19.453125 8.425781 L 19.472656 8.144531 L 19.253906 7.964844 L 19.53125 7.902344 L 19.632812 7.636719 L 19.78125 7.878906 L 20.0625 7.894531 L 19.878906 8.109375 L 19.949219 8.382812 L 19.6875 8.273438 Z " fill="#dcdcdc"/>
  <path d="M 19.714844 10.066406 L 19.660156 9.636719 L 19.277344 9.4375 L 19.667969 9.253906 L 19.738281 8.828125 L 20.035156 9.144531 L 20.460938 9.082031 L 20.253906 9.457031 L 20.445312 9.84375 L 20.023438 9.761719 Z " fill="#dcdcdc"/>
 </g>
</svg>
